X:525
T:You Need Not Fear
M:C
L:1/8
B:O'Neill's 525
N:"Animated" "collected by J. O'Neill"
Z:Transcribed by Dave Wooldridge
K:G
G \
| G3 A (cB)(AG) | A3 B (dc)(BA) | G2 (Bd) (ed)(cB) | (B4 A2) z G |
G3 F E2 D2 | E2 G>A B3 e | d3 e B2 (A/2G/2B/2A/2) | G6 z ||
d \
| d2 (ef) g3 (f/2e/2) | (d3e) B2 z e | d3 e (dB)(AG) | (B3 c/2B/2) A2 zG |
G2 Bd e3 d | g3 a {a}Hg2 fe | (dB)(ge) (dB)(A>B) | G6 z ||


